svg/waves_arrow_left.svg

<svg xmlns="http://www.w3.org/2000/svg" viewBox="0 0 24 24"><path d="M4 14c1.39 0 2.78-.47 4-1.33 2.44 1.71 5.56 1.71 8 0 1.22.86 2.61 1.33 4 1.33h2v2h-2c-1.37 0-2.74-.35-4-1-2.5 1.3-5.5 1.3-8 0-1.26.65-2.62 1-4 1H2v-2zm4 4.67c2.44 1.71 5.56 1.71 8 0 1.22.86 2.61 1.33 4 1.33h2v2h-2c-1.37 0-2.74-.35-4-1-2.5 1.3-5.5 1.3-8 0-1.26.65-2.62 1-4 1H2v-2h2c1.39 0 2.78-.47 4-1.33M6 10V7h5V5H6V2L2 6"/></svg>

<svg xmlns="http://www.w3.org/2000/svg" id="mdi-waves-arrow-left" viewBox="0 0 24 24"><path d="M4 14C5.39 14 6.78 13.53 8 12.67C10.44 14.38 13.56 14.38 16 12.67C17.22 13.53 18.61 14 20 14H22V16H20C18.63 16 17.26 15.65 16 15C13.5 16.3 10.5 16.3 8 15C6.74 15.65 5.38 16 4 16H2V14H4M8 18.67C10.44 20.38 13.56 20.38 16 18.67C17.22 19.53 18.61 20 20 20H22V22H20C18.63 22 17.26 21.65 16 21C13.5 22.3 10.5 22.3 8 21C6.74 21.65 5.38 22 4 22H2V20H4C5.39 20 6.78 19.53 8 18.67M6 10V7H11V5H6V2L2 6" /></svg>
